storage/app/icons/phosphoricons/thin/cell-signal-high-thin.svg

<svg xmlns="http://www.w3.org/2000/svg" fill="currentColor" viewBox="0 0 256 256"><path d="M164 72v128a4 4 0 0 1-8 0V72a4 4 0 0 1 8 0m-44 36a4 4 0 0 0-4 4v88a4 4 0 0 0 8 0v-88a4 4 0 0 0-4-4m-40 40a4 4 0 0 0-4 4v48a4 4 0 0 0 8 0v-48a4 4 0 0 0-4-4m-40 40a4 4 0 0 0-4 4v8a4 4 0 0 0 8 0v-8a4 4 0 0 0-4-4"/></svg>

<svg xmlns="http://www.w3.org/2000/svg" viewBox="0 0 256 256" fill="currentColor"><path d="M164,72V200a4,4,0,0,1-8,0V72a4,4,0,0,1,8,0Zm-44,36a4,4,0,0,0-4,4v88a4,4,0,0,0,8,0V112A4,4,0,0,0,120,108ZM80,148a4,4,0,0,0-4,4v48a4,4,0,0,0,8,0V152A4,4,0,0,0,80,148ZM40,188a4,4,0,0,0-4,4v8a4,4,0,0,0,8,0v-8A4,4,0,0,0,40,188Z"/></svg>
